X:5013
T:The Rich View
M:6/8
L:1/8
Q:180
C:Aidan Crossey
R:Jig
K:D
|:fed dcB|ABG FED|FAD FAD|GFE EFA|
fed dcB|ABG FED|FAD FAD|GFE D3:||
|:fed faf|ged cBA|fed faf|gec Ace|
fed faf|ged cBA|fed cBA|ABc d3:||
